X: 894
T: Sleeping Lulu
C:Highwoods String Band version
B: jims roots
L:1/8
Q: 1/4=100
K:C
V:1 
cA |: "C"GAcd edcd | abag edcA | "G (C)"GAcd "(G)"edcA | "C"cdcA c2JG2- |
GAcd edce | abag edcd | "D"ea2b ageg | "G"abag edcA ||
"C"GAcd edcd | abag edcA | "G"GAcd edcA | "C"cdcA c2([A2A] |
"F"[AA])cAc "F#7"dcA^F | "C"GAeg "A"ageg | "D"aged "G"cGA2 |[1"C"c3dc2JG2:| [2 "C"c3dc2JJc'2||
"C"c'2 c'4 a2 | g3d edcA | "G (C)"GAcd "(G)"edcB |"C"cdcA c2 Jc'2 |
c'2 c'4 a2 | g3d edcA | "D"[d2^f] [d4f] ef | "G"gedc  BG3- | "C"G2 c'4 a2 |
g3d edcA | "G (C)"GAcd "(G)"edcA | "C"cdcA c2 J[A2A]- | "F"[AA]cAc "F#7"dcA^F |
"C"GAeg "A"ageg | "D"aged "G"cGA2 |[1 "C"c3d c2c'2 :| [2 "C"c6 |]
% abcbook-tune_id 6298c28763ac8206cb7a1131


% abcbook-boost 0
% abcbook-tablature 
% abcbook-transpose 
% abcbook-lastupdated 1654178440464
% abcbook-soundfonts 
% abcbook-repeats 1


